X:1
T:Title
L:1/8
M:4/4
K:Ab
V:1 treble nm="Grand Piano"
V:1
 z4 z[Q:1/4=100] CFG | A2 F2 G2 =E2 | F4- FFGA | B2 G2 A2 B2 | c4- ccdc | B4- BBcB | A4- AABA | %7
 G2 F2 =E2 F2 | G4- GGAG | F2 C2 A2 G2 | F4 z cc_c | c4- cdcB | AGBA G4- | GBB=A B4- | BcBA GFED | %15
 C4- CBB=A | B2 d2 c4- | c6 z2 |] %18

